X:7761
T:Jackie Coleman's reel
R:Reel
S:Matt Cranitch Fiddle book
Z:Added by Alf Warnock
M:4/4
L:1/8
K:D
dB|:AF~F2 EDB,D|F2AF BFAF|E2BE dEBE|ABde fedB|
AF~F2 EFDE|F2AF BFAF|E2BE dEBE|1 ABde fddB:|2 ABde fdde|
|:fd~d2 dfag|fd~d2 dfaf|eA~A2 eAfA|eA~A2 cdeg|
fd~d2 dfag|fd~d2 dfaf|g2ef gbag|1 (3fga eg fdde:|2 (3fga eg fdd2|]
